X: 50
T:Cotillion. WCl.50
M:C|
L:1/8
Q:120
S:William Clarke MS,Lincoln,1770.
R:Cotillion
O:Lincoln
A:England
N:tonic solfa symbols added above stave in different hand and different
N:ink. Looks later date......BC....
Z:vmp.Barry Callaghan
K:G
g2d2B2G2|AGAB G4|AGAB c2B2|AGcA B2G2|!
g2d2B2G2|AGAB G4|AGAB c2B2|AGAB G4:|!
|:B2c2B2A2|B2c2B2A2|B2c2B2A2|GABc d4:|!
|:g2d2B2G2|AGAB G4|AGAB c2B2|ABcA B2G2|!
g2d2B2G2|AGAB G4|AGAB c2B2|AGAB G4:|]
